X: 1
T: Buffalo Gals
R: reel
O: American
B:
D:
Z: John Chambers <jc:trillian.mit.edu>
N:
M: C|
L: 1/8
K: A
|: "A"A2A2 c2ee | f2ee c4 | "E7"e2dd B2e2 | "A" f2ee c4 \
|  "A"A2A2 c2ee | f2ee c4 | "E7"e2ee dcB2 | "A"A8 :|
|: "A"a2g2 f2e2 | f2ee c4 | "E7"e2dd B2e2 | "A" f2ee c4 \
|  "A"a2g2 f2e2 | f2ee c4 | "E7"e2ee dcB2 | "A"A8 :|
